svgs/regular/bag-shopping.svg

<svg xmlns="http://www.w3.org/2000/svg" viewBox="0 0 448 512"><!--! Font Awesome Pro 6.3.0 by @fontawesome - https://fontawesome.com License - https://fontawesome.com/license (Commercial License) Copyright 2023 Fonticons, Inc. --><path d="M160 112v48H288V112c0-35.3-28.7-64-64-64s-64 28.7-64 64zm-48 96H48V416c0 26.5 21.5 48 48 48H352c26.5 0 48-21.5 48-48V208H336v56c0 13.3-10.7 24-24 24s-24-10.7-24-24V208H160v56c0 13.3-10.7 24-24 24s-24-10.7-24-24V208zm0-48V112C112 50.1 162.1 0 224 0s112 50.1 112 112v48h64c26.5 0 48 21.5 48 48V416c0 53-43 96-96 96H96c-53 0-96-43-96-96V208c0-26.5 21.5-48 48-48h64z"/></svg>

<svg xmlns="http://www.w3.org/2000/svg" viewBox="0 0 448 512"><!--! Font Awesome Pro 6.2.0 by @fontawesome - https://fontawesome.com License - https://fontawesome.com/license (Commercial License) Copyright 2022 Fonticons, Inc. --><path d="M112 160V112C112 50.14 162.1 0 224 0C285.9 0 336 50.14 336 112V160H400C426.5 160 448 181.5 448 208V416C448 469 405 512 352 512H96C42.98 512 0 469 0 416V208C0 181.5 21.49 160 48 160H112zM160 160H288V112C288 76.65 259.3 48 224 48C188.7 48 160 76.65 160 112V160zM48 208V416C48 442.5 69.49 464 96 464H352C378.5 464 400 442.5 400 416V208H336V264C336 277.3 325.3 288 312 288C298.7 288 288 277.3 288 264V208H160V264C160 277.3 149.3 288 136 288C122.7 288 112 277.3 112 264V208H48z"/></svg>
